packages/kaspersky-hexa-ui-icons/src/iconsSVGs/48/Lock.svg

<svg width="48" height="48" viewBox="0 0 48 48" fill="none" xmlns="http://www.w3.org/2000/svg">
<path fill-rule="evenodd" clip-rule="evenodd" d="M38 20V14C38 6.26801 31.732 0 24 0C16.268 0 10 6.26801 10 14V20H4V48H44V20H38ZM12 14C12 7.37258 17.3726 2 24 2C30.6274 2 36 7.37258 36 14V20H32V14C32 9.58172 28.4183 6 24 6C19.5817 6 16 9.58172 16 14V20H12V14ZM30 20H18V14C18 10.6863 20.6863 8 24 8C27.3137 8 30 10.6863 30 14V20ZM42 22V41H6V22H42ZM6 46V43H9.09L6.09 46H6ZM11.91 43H14.09L11.09 46H8.91L11.91 43ZM16.91 43H19.09L16.09 46H13.91L16.91 43ZM21.91 43H24.09L21.09 46H18.91L21.91 43ZM26.91 43H29.09L26.09 46H23.91L26.91 43ZM31.91 43H34.09L31.09 46H28.91L31.91 43ZM36.91 43H39.09L36.09 46H33.91L36.91 43ZM38.91 46L41.91 43H42V46H38.91Z"  fill="currentColor"/>
</svg>

<svg xmlns="http://www.w3.org/2000/svg" width="48" height="48" fill="none" viewBox="0 0 48 48"><path fill="currentColor" fill-rule="evenodd" d="M38 20v-6c0-7.732-6.268-14-14-14S10 6.268 10 14v6H4v28h40V20zm-26-6c0-6.6274 5.3726-12 12-12s12 5.3726 12 12v6h-4v-6c0-4.4183-3.5817-8-8-8s-8 3.5817-8 8v6h-4zm18 6H18v-6c0-3.3137 2.6863-6 6-6s6 2.6863 6 6zm12 2v19H6V22zM6 46v-3h3.09l-3 3zm5.91-3h2.18l-3 3H8.91zm5 0h2.18l-3 3h-2.18zm5 0h2.18l-3 3h-2.18zm5 0h2.18l-3 3h-2.18zm5 0h2.18l-3 3h-2.18zm5 0h2.18l-3 3h-2.18zm2 3 3-3H42v3z" clip-rule="evenodd"/></svg>
